X:1
T:Merry Lads of New Pitsligo, The
T:Merry Lads of New Pitsligo, The
T:Alexander Walker
C:Alexander Walker
L:1/8
M:4/4
K:A
V:1 treble 
V:1
 C | A,<CE<C E<F E2 | A,>CE>C (d/c/).B/.A/ B>c | A,>CE>C (D>F) E3/2c/4d/ | e>cd>B c<A A :| d | %6
 c>eA>e c<e{g}a>c | d>Bc>A B<B,B,>d | c>eA>e c>e{g}a>c | A>FE>D C<A,A,>d | c>eA>e c<e{g}a>c | %11
 d>Bc>A B<B,B,>d | c>Ac<a d>Bd<b | g<eb>g a<A A || %14

